svg/facebook-circle.svg

<svg xmlns="http://www.w3.org/2000/svg" viewBox="0 0 64 64" enable-background="new 0 0 64 64"><style type="text/css">.st0{fill:#343434;}</style><path class="st0" d="M32 0c-17.7 0-32 14.3-32 32s14.3 32 32 32 32-14.3 32-32-14.3-32-32-32zm11 16.4h-5.3c-1.1 0-2.1 1.1-2.1 1.9v5.5h7.4c-.3 4.2-.9 8.1-.9 8.1h-6.6v24h-9.8v-23.9h-4.7v-8.1h4.8v-6.6c0-1.2-.2-9.3 10-9.3h7.2v8.4z"/></svg>

<?xml version="1.0" encoding="utf-8"?>
<!-- Generator: Adobe Illustrator 21.0.0, SVG Export Plug-In . SVG Version: 6.00 Build 0)  -->
<svg version="1.1" id="Layer_1" xmlns="http://www.w3.org/2000/svg" xmlns:xlink="http://www.w3.org/1999/xlink" x="0px" y="0px"
	 viewBox="0 0 64 64" style="enable-background:new 0 0 64 64;" xml:space="preserve">
<style type="text/css">
	.st0{fill:#343434;}
</style>
<g>
	<path class="st0" d="M32,0C14.3,0,0,14.3,0,32c0,17.7,14.3,32,32,32s32-14.3,32-32C64,14.3,49.7,0,32,0z M43,16.4h-5.3
		c-1.1,0-2.1,1.1-2.1,1.9v5.5H43c-0.3,4.2-0.9,8.1-0.9,8.1h-6.6v24h-9.8V32H21v-8.1h4.8v-6.6c0-1.2-0.2-9.3,10-9.3H43V16.4z"/>
</g>
</svg>
